src/data/icons/arrow-right.svg

<svg width="8" height="14" xmlns="http://www.w3.org/2000/svg" xmlns:xlink="http://www.w3.org/1999/xlink"><defs><path d="M7.7 12.3c.4.4.4 1 0 1.4-.2.2-.4.3-.7.3-.3 0-.5-.1-.7-.3l-6-6c-.4-.4-.4-1 0-1.4l6-6c.4-.4 1-.4 1.4 0 .4.4.4 1 0 1.4L2.4 7l5.3 5.3z" id="a"/></defs><use fill="#000" fill-rule="nonzero" xlink:href="#a" transform="matrix(-1 0 0 1 8 0)"/></svg>

<?xml version="1.0" encoding="UTF-8"?>
<svg width="8px" height="14px" viewBox="0 0 8 14" version="1.1" xmlns="http://www.w3.org/2000/svg" xmlns:xlink="http://www.w3.org/1999/xlink">
    <title>Mask</title>
    <defs>
        <path d="M7.7,12.3 C8.1,12.7 8.1,13.3 7.7,13.7 C7.5,13.9 7.3,14 7,14 C6.7,14 6.5,13.9 6.3,13.7 L0.3,7.7 C-0.1,7.3 -0.1,6.7 0.3,6.3 L6.3,0.3 C6.7,-0.1 7.3,-0.1 7.7,0.3 C8.1,0.7 8.1,1.3 7.7,1.7 L2.4,7 L7.7,12.3 Z" id="path-1"></path>
    </defs>
    <g id="⚙️-00-Settings" stroke="none" stroke-width="1" fill="none" fill-rule="evenodd">
        <g id="wallfair-mobile-settings-menu-01" transform="translate(-350.000000, -585.000000)">
            <g id="Group-22" transform="translate(32.000000, 552.000000)">
                <g id="icon-/-chevron-left-copy" transform="translate(322.000000, 40.000000) scale(-1, 1) translate(-322.000000, -40.000000) translate(318.000000, 33.000000)">
                    <mask id="mask-2" fill="white">
                        <use xlink:href="#path-1"></use>
                    </mask>
                    <use id="Mask" fill="#000000" fill-rule="nonzero" xlink:href="#path-1"></use>
                </g>
            </g>
        </g>
    </g>
</svg>
